rospo-icon-theme-classic-common/24x24/apps/com.github.bcedu.shutdownscheduler.svg

<svg height="24" width="24" xmlns="http://www.w3.org/2000/svg"><circle cx="12" cy="12" fill="#4f4f4f" r="10"/><path d="m12 5.5c-3.8662 0-7 3.1338-7 7s3.1338 7 7 7 7-3.1338 7-7-3.1338-7-7-7zm0 2c2.7615 0 5 2.2385 5 5s-2.2385 5-5 5-5-2.2385-5-5 2.2385-5 5-5zm0 2c-.554 0-1 .46788-1 1.0469v3.9062c0 .579.446 1.0469 1 1.0469s1-.46788 1-1.0469v-3.9062c0-.5789-.446-1.0468-1-1.0468z" fill-rule="evenodd" opacity=".2"/><path d="m12 5c-3.8662 0-7 3.1338-7 7s3.1338 7 7 7 7-3.1338 7-7-3.1338-7-7-7zm0 2c2.7615 0 5 2.2385 5 5s-2.2385 5-5 5-5-2.238-5-5c0-2.7615 2.2385-5 5-5zm0 2c-.554 0-1 .46788-1 1.0469v3.9062c0 .579.446 1.047 1 1.047s1-.46788 1-1.0469v-3.9062c0-.5789-.446-1.0468-1-1.0468z" fill="#fff" fill-rule="evenodd"/><path d="m12 2a10 10 0 0 0 -10 10 10 10 0 0 0  .0098.293 10 10 0 0 1 9.9902-9.793 10 10 0 0 1 9.99 9.707 10 10 0 0 0  .01-.207 10 10 0 0 0 -10-10z" fill="#fff" opacity=".1"/><path d="m21.99 12.207a10 10 0 0 1 -9.99 9.793 10 10 0 0 1 -9.9902-9.707 10 10 0 0 0 -.0098.207 10 10 0 0 0 10 10 10 10 0 0 0 10-10 10 10 0 0 0 -.0098-.29297z" opacity=".2"/><circle cx="17.5" cy="17.5" fill="#cd4242" r="5.5"/><path d="m17.5 14a .5.5 0 0 0 -.5.5v2.5.455078.544922h3.5a.5.5 0 0 0  .5-.5.5.5 0 0 0 -.5-.5h-2.5v-2.5a.5.5 0 0 0 -.5-.5z" fill="#fff"/></svg>

<svg xmlns="http://www.w3.org/2000/svg" width="24" height="24" version="1">
 <circle style="fill:#4f4f4f" cx="12" cy="12" r="10"/>
 <path style="opacity:0.2;fill-rule:evenodd" d="m 12,5.5 c -3.8662,0 -7,3.1338 -7,7 0,3.8662 3.1338,7 7,7 3.8662,0 7,-3.1338 7,-7 0,-3.8662 -3.1338,-7 -7,-7 z m 0,2 c 2.7615,0 5,2.2385 5,5 0,2.7615 -2.2385,5 -5,5 -2.7615,0 -5,-2.2385 -5,-5 0,-2.7615 2.2385,-5 5,-5 z m 0,2 c -0.554,0 -1,0.46788 -1,1.0469 l 0,3.9062 c 0,0.579 0.446,1.0469 1,1.0469 0.554,0 1,-0.46788 1,-1.0469 l 0,-3.9062 C 13,9.968 12.554,9.5001 12,9.5001 Z"/>
 <path style="fill:#ffffff;fill-rule:evenodd" d="m 12,5 c -3.8662,0 -7,3.1338 -7,7 0,3.8662 3.1338,7 7,7 3.8662,0 7,-3.1338 7,-7 0,-3.8662 -3.1338,-7 -7,-7 z m 0,2 c 2.7615,0 5,2.2385 5,5 0,2.7615 -2.2385,5 -5,5 C 9.2385,17 7,14.762 7,12 7,9.2385 9.2385,7 12,7 Z m 0,2 c -0.554,0 -1,0.46788 -1,1.0469 l 0,3.9062 c 0,0.579 0.446,1.047 1,1.047 0.554,0 1,-0.46788 1,-1.0469 L 13,10.047 C 13,9.4681 12.554,9.0002 12,9.0002 Z"/>
 <path style="opacity:0.1;fill:#ffffff" d="M 12,2 A 10,10 0 0 0 2,12 10,10 0 0 0 2.0098,12.293 10,10 0 0 1 12,2.5 10,10 0 0 1 21.99,12.207 10,10 0 0 0 22,12 10,10 0 0 0 12,2 Z"/>
 <path style="opacity:0.2" d="M 21.99,12.207 A 10,10 0 0 1 12,22 10,10 0 0 1 2.0098,12.293 10,10 0 0 0 2,12.5 a 10,10 0 0 0 10,10 10,10 0 0 0 10,-10 10,10 0 0 0 -0.0098,-0.29297 z"/>
 <circle style="fill:#cd4242" cx="17.5" cy="17.5" r="5.5"/>
 <path style="fill:#ffffff" d="M 17.5 14 A 0.5 0.5 0 0 0 17 14.5 L 17 17 L 17 17.455078 L 17 18 L 20.5 18 A 0.5 0.5 0 0 0 21 17.5 A 0.5 0.5 0 0 0 20.5 17 L 18 17 L 18 14.5 A 0.5 0.5 0 0 0 17.5 14 z"/>
</svg>
